X:1
T:An Cota Ruadh
R:Strathspey
Z:Transcribed 9 October, 2016 by Stephen Beitzel
C:Trad., Arranged by Adam Blaine
M:C
L:1/8
K:D
[|: d | {g}B>A {g}B<d {gef}e2 {g}e<g | {Gd}G2 {g}B>A {g}G2 {gGd}G>d | {g}B>A {g}B<d {gef}e2 {g}e<g | {ag}a>e {gf}g>B {g}A2 {GdGe}A :|]
| e | {ag}a>e {gf}g>f {g}e>d {g}e<g | {Gd}G2 {g}B>A {g}G2 {gGd}G>e | {ag}a>e {gf}g>f {g}e>d {g}e<g | {ag}a>e {gf}g>B {g}A2 {GdGe}A>e |
| {ag}a>e {gf}g>f {g}e>d {g}e<g | {Gd}G2 {g}B>A {g}G2 {gGd}G>d | {g}B>A {g}B<d {gef}e2 {g}e<g | {ag}a>e {gf}g>B {g}A4 |
